public/img/removal/chevron-right-black.svg

<svg fill="none" height="16" viewBox="0 0 16 16" width="16" xmlns="http://www.w3.org/2000/svg"><path d="m10.9981 8.35203-5.46502 5.46597c-.11849.1123-.27613.1738-.43933.1715-.16321-.0023-.31905-.0682-.43434-.1838-.11528-.1155-.18087-.2715-.1828-.4347s.05996-.3207.17247-.439l4.935-4.93397-4.934-4.931c-.11238-.11836-.17408-.27594-.17197-.43914.00212-.1632.06789-.31912.1833-.43453s.27133-.18118.43453-.1833c.1632-.00211.32078.05959.43914.17197l5.46402 5.465z" fill="#20123a"/></svg>

<svg width="16" height="16" viewBox="0 0 16 16" fill="none" xmlns="http://www.w3.org/2000/svg">
<title>Black Right Chevron</title>
<path d="M10.9981 8.35203L5.53308 13.818C5.41459 13.9303 5.25695 13.9918 5.09375 13.9895C4.93054 13.9872 4.7747 13.9213 4.65941 13.8057C4.54413 13.6902 4.47854 13.5342 4.47661 13.371C4.47468 13.2078 4.53657 13.0503 4.64908 12.932L9.58408 7.99803L4.65008 3.06703C4.5377 2.94867 4.476 2.79109 4.47811 2.62789C4.48023 2.46469 4.546 2.30877 4.66141 2.19336C4.77682 2.07795 4.93274 2.01218 5.09594 2.01006C5.25914 2.00795 5.41672 2.06965 5.53508 2.18203L10.9991 7.64703L10.9981 8.35203Z" fill="#20123A"/>
</svg>
